!!!COM: Bach, Johann Sebastian
!!!OPR: Joh. Seb. Bachs vierstimmige Choralgesänge
!!!XEN: Four-part Chorales
!!!OTL: 22. Christe, der du bist Tag und Licht
!!!SCT: BWV 274
!!!SCA: Thematisch-systematisches Verzeichnis der musikalischen Werke Johann Sebastian Bach: Bach-Werke-Verzeichnis (Schmieder)
!!!YOR: Bach Gesellschaft Edition xxxix
!!!ENC: Steven Rasmussen
!!!CDT: 1685/3//-1750/7/28/
!!!OCY: Deutschland
!!!YEC: Copyright (c) 1994, 2000 Center for Computer Assisted Research in the Humanities
!!!YEM: Rights to all derivative editions reserved
!!!YEN: United States of America
**kern	**kern	**kern	**kern	**silbe
*I:[BASSO]	*I:[TENORE]	*I:[ALTO]	*I:[SOPRANO]	*I:[SOPRANO]
*clefF4	*clefGv2	*clefG2	*clefG2	*
*k[b-e-]	*k[b-e-]	*k[b-e-]	*k[b-e-]	*
*g:	*g:	*g:	*g:	*
*M4/4	*M4/4	*M4/4	*M4/4	*
8BB-L	8dL	4d	4g	Chri-
8AAJ	8cJ	.	.	.
=1	=1	=1	=1	=1
8GGL	4B-	4d	4b-	-ste,
8AAJ	.	.	.	.
8BB-L	4B-	4d	4g	der
8CJ	.	.	.	.
8DL	4A	4d	4f	du
8CJ	.	.	.	.
8BB-L	8B-L	8dL	8gL	bist
8AAJ	8cJ	8f#J	8aJ	.
=2	=2	=2	=2	=2
8GGL	4d	4.g	4b-	Tag
8BB-J	.	.	.	.
8CL	8e-L	.	4a	und
8DJ	16dL	8f#	.	.
.	16cJJ	.	.	.
4GG;	4B-;	4d;	4g;	Licht,
4G	4d	4g	4b-	vor
=3	=3	=3	=3	=3
8GGL	4d	4g	4b-	dir
8AAJ	.	.	.	.
8BB-L	4d	4g	4b-	ist,
8CJ	.	.	.	.
8DL	8dL	8fL	4b-	Herr,
8E-J	8GJ	8e-J	.	.
4F	8AL	8e-L	4f	ver-
.	8B-J	16dL	.	.
.	.	16cJJ	.	.
=4	=4	=4	=4	=4
4F	8B-L	8dL	4g	-bor-
.	8AJ	16enL	.	.
.	.	16fJJ	.	.
4En	8GL	4g	4b-	-gen
.	8cJ	.	.	.
4F;	4c;	4f;	4a;	nichts;
8FFL	8cL	4f	4a	du
8GGJ	8B-J	.	.	.
=5	=5	=5	=5	=5
8AAL	8AL	4f	4cc	vÃ¤-
8BB-J	8GJ	.	.	.
8CL	4A	8enL	4cc	-ter-
8DJ	.	8f#J	.	.
4.E-	8GL	8gL	8ccL	-li-
.	8cJ	8f#J	16b-L	.
.	.	.	16aJJ	.
.	8B-L	8gL	8gL	-ches
8FF#	8AJ	8dJ	8aJ	.
=6	=6	=6	=6	=6
8GGL	8GL	(8d	4b-	Lich-
8BB-J	8dJ	4g)	.	.
8CL	8e-L	.	4a	-tes
8DJ	16dL	8f#	.	.
.	16cJJ	.	.	.
4GG;	4B-;	4d;	4g;	Glanz,
4D	4d	4f#	4a	lehr'
=7	=7	=7	=7	=7
8GGL	4d	4g	4b-	uns
8AAJ	.	.	.	.
8BB-L	4B-	4d	4g	den
8CJ	.	.	.	.
8DL	4A	4d	4f	Weg
8CJ	.	.	.	.
8BB-L	8B-L	8dL	8gL	der
8AAJ	8cJ	8f#J	8aJ	.
=8	=8	=8	=8	=8
8GGL	4d	4.g	4b-	Wahr-
8BB-J	.	.	.	.
8CL	8e-L	.	4a	-heit
8DJ	16dL	8f#	.	.
.	16cJJ	.	.	.
4GG;	4Bn;	4d;	4g;	ganz.
==|!	==|!	==|!	==|!	==|!
*-	*-	*-	*-	*-
!!!RWG: Key is interpreted using the Humdrum key tool.
!!!URL-pdf: https://s9.imslp.org/files/imglnks/usimg/6/6b/IMSLP24489-PMLP09471-CCARH_Bach_Chorales.pdf#page=14 Musedata edition
!!!URL-pdf: https://s9.imslp.org/files/imglnks/usimg/7/7a/IMSLP04155-Bach_-_BGA_253-438.pdf#page=13 	Bach-Gesellschaft Ausgabe, Band 39 (pp.175-276) Leipzig: Breitkopf und Härtel, 1892. Plate B.W. XXXIX.
!!!END: 1994/05/11
!!!EMD: Converted from MuseData to Humdrum Dec 19, 2000, by Andreas Kornstaedt using muse2kern.
!!!EED: Craig Stuart Sapp
!!!EEV: 2024/03/31
!!!filter-keyboard: satb2gs
!!!title: @{OTL} (@{SCT})
